X:99
T: Auf der letzten Reise litt ich etwas Not
N: D0146
O: Europa, Mitteleuropa, Deutschland, Wolga - Kolonie
N: Inzipit = Transposition zum Lied
R: Wander - Lied, Handwerksburschen - Lied
M: 4/4
L: 1/16
K: A
 | E3AA2A2c4A4 | d2c2B2A2B8 |
E2F2G2A2B2c2d4 | e3dc2B2A8 |
e2e2f2e2a4e2c2 | f2e2d2c2c2d2B4 |
E3AA2A2c2c2A2c2 | e2e2e3fe6
c2 | e2e2f2g2a2f2e2d2 | c2d2B4A8

@@@ Tune index: 2621
